X: 146202
M: 2/4
L: 1/16
K: G
uG4 |\
vd2(3(ded) c2A2 | G2B2B2G2 |\
vd2(3(ded) c2A2 | A2G2G2 :|
|: uG2 |\
c2e2 vg3ve | ud2B2 B4 |\
d2(3(ded) c2A2 | G2B2B2 zuB |\
c2e2 vg3ve | ud2B2 B4 |\
d2(3(ded) c2A2 | A2G2G2 :|


